symbols/web/style/materialsymbolsoutlined/style_wght300fill1_40px.svg

<svg xmlns="http://www.w3.org/2000/svg" height="40" width="40"><path d="m6.792 33.875-.667-.208q-1.333-.584-1.792-1.959-.458-1.375.209-2.666l2.25-5Zm7.833 2.958q-1.417 0-2.396-.979-.979-.979-.979-2.396v-7.625l3.5 9.917q.125.292.271.562.146.271.354.521Zm7.125-1.25q-.75.334-1.562-.125-.813-.458-1.146-1.25L11.375 13.25q-.333-.833.063-1.625.395-.792 1.27-1.125l12.917-4.708q.792-.292 1.563.146.77.437 1.104 1.27l7.666 20.834q.292.875-.041 1.708-.334.833-1.209 1.125Zm-3.208-19.458q.625 0 1.062-.417.438-.416.438-1.041 0-.584-.438-1.021-.437-.438-1.062-.438-.584 0-1.021.438-.438.437-.438 1.021 0 .625.438 1.041.437.417 1.021.417Z"/></svg>

<svg xmlns="http://www.w3.org/2000/svg" height="40" width="40"><path d="M6.792 33.875 6.125 33.667Q4.792 33.083 4.333 31.708Q3.875 30.333 4.542 29.042L6.792 24.042ZM14.625 36.833Q13.208 36.833 12.229 35.854Q11.25 34.875 11.25 33.458V25.833L14.75 35.75Q14.875 36.042 15.021 36.312Q15.167 36.583 15.375 36.833ZM21.75 35.583Q21 35.917 20.188 35.458Q19.375 35 19.042 34.208L11.375 13.25Q11.042 12.417 11.438 11.625Q11.833 10.833 12.708 10.5L25.625 5.792Q26.417 5.5 27.188 5.938Q27.958 6.375 28.292 7.208L35.958 28.042Q36.25 28.917 35.917 29.75Q35.583 30.583 34.708 30.875ZM18.542 16.125Q19.167 16.125 19.604 15.708Q20.042 15.292 20.042 14.667Q20.042 14.083 19.604 13.646Q19.167 13.208 18.542 13.208Q17.958 13.208 17.521 13.646Q17.083 14.083 17.083 14.667Q17.083 15.292 17.521 15.708Q17.958 16.125 18.542 16.125Z"/></svg>
